Obsidian/actions/16s/document-revert-symbolic.svg

<svg height="16" width="16" xmlns="http://www.w3.org/2000/svg"><path d="m13 1v1h2v-1zm-9.5 1c-.831 0-1.5.669-1.5 1.5v1c0-.831.669-1.5 1.5-1.5h7c.831 0 1.5.669 1.5 1.5v-1c0-.831-.669-1.5-1.5-1.5zm5.5 3-4 3 .65625.5 3.34375-2.5zm4 1.5c0 .277-.223.5-.5.5h-.5-2-1v1h3.5c.277 0 .5-.223.5-.5zm-3 3.5v1h2v-1zm-6 1.5v1c0 .277.223.5.5.5h5c.277 0 .5-.223.5-.5v-1c0 .277-.223.5-.5.5h-.5-4.5c-.277 0-.5-.223-.5-.5zm9-10.5v5.5c0 .277-.223.5-.5.5h-3.5v-2l-4 3 4 3v-2h4.5c.831 0 1.5-.669 1.5-1.5v-6.5zm-9.5 1c-.831 0-1.5.669-1.5 1.5v9c0 .831.669 1.5 1.5 1.5h7c.831 0 1.5-.669 1.5-1.5v-2.5h-2v1.5c0 .277-.223.5-.5.5h-5c-.277 0-.5-.223-.5-.5v-7c0-.277.223-.5.5-.5h5c.277 0 .5.223.5.5v1.5h2v-2.5c0-.831-.669-1.5-1.5-1.5z" fill="#bebebe"/></svg>

<?xml version="1.0" encoding="UTF-8" standalone="no"?>
<!-- Created with Inkscape (http://www.inkscape.org/) -->

<svg
   xmlns:dc="http://purl.org/dc/elements/1.1/"
   xmlns:cc="http://creativecommons.org/ns#"
   xmlns:rdf="http://www.w3.org/1999/02/22-rdf-syntax-ns#"
   xmlns:svg="http://www.w3.org/2000/svg"
   xmlns="http://www.w3.org/2000/svg"
   xmlns:xlink="http://www.w3.org/1999/xlink"
   xmlns:sodipodi="http://sodipodi.sourceforge.net/DTD/sodipodi-0.dtd"
   xmlns:inkscape="http://www.inkscape.org/namespaces/inkscape"
   width="16"
   height="16"
   id="svg2"
   sodipodi:version="0.32"
   inkscape:version="0.91 r13725"
   version="1.0"
   sodipodi:docname="document-revert-symbolic.svg"
   inkscape:output_extension="org.inkscape.output.svg.inkscape"
   inkscape:export-filename="/home/matt/.icons/Sirocco/scalable/mimetypes/text-plain.png"
   inkscape:export-xdpi="90"
   inkscape:export-ydpi="90"
   sodipodi:modified="true"
   style="display:inline">
  <sodipodi:namedview
     id="base"
     pagecolor="#ffffff"
     bordercolor="#666666"
     borderopacity="1.0"
     inkscape:pageopacity="0.0"
     inkscape:pageshadow="2"
     inkscape:zoom="26.242346"
     inkscape:cx="-0.630388"
     inkscape:cy="6.7361723"
     inkscape:document-units="px"
     inkscape:current-layer="layer1"
     width="128px"
     height="128px"
     inkscape:showpageshadow="false"
     inkscape:window-width="1920"
     inkscape:window-height="1004"
     inkscape:window-x="0"
     inkscape:window-y="25"
     showguides="true"
     inkscape:guide-bbox="true"
     showgrid="true"
     inkscape:window-maximized="1">
    <sodipodi:guide
       id="guide2226"
       position="32.637397,117.99844"
       orientation="horizontal" />
    <sodipodi:guide
       id="guide2230"
       position="110,57.402344"
       orientation="vertical" />
    <sodipodi:guide
       id="guide2232"
       position="33.760911"
       orientation="horizontal" />
    <sodipodi:guide
       id="guide2231"
       position="46.774696"
       orientation="horizontal" />
    <inkscape:grid
       enabled="true"
       visible="true"
       id="grid3231"
       type="xygrid" />
    <sodipodi:guide
       orientation="1,0"
       position="100,67.625"
       id="guide2713" />
  </sodipodi:namedview>
  <defs
     id="defs4">
    <inkscape:perspective
       sodipodi:type="inkscape:persp3d"
       inkscape:vp_x="0 : 11 : 1"
       inkscape:vp_y="0 : 1000 : 0"
       inkscape:vp_z="22 : 11 : 1"
       inkscape:persp3d-origin="11 : 7.3333333 : 1"
       id="perspective19" />
    <linearGradient
       id="StandardGradient"
       gradientTransform="scale(0.9219544,1.0846523)"
       x1="11.998966"
       y1="0.92195445"
       x2="11.998966"
       y2="19.387045"
       gradientUnits="userSpaceOnUse">
      <stop
         style="stop-color:#000000;stop-opacity:0.86274511;"
         offset="0"
         id="stop3283" />
      <stop
         style="stop-color:#000000;stop-opacity:0.47058824;"
         offset="1"
         id="stop2651" />
    </linearGradient>
    <linearGradient
       inkscape:collect="always"
       xlink:href="#StandardGradient"
       id="linearGradient2549"
       gradientUnits="userSpaceOnUse"
       gradientTransform="matrix(0.9247229,0,0,1.0872097,-2.0600562,0.9976422)"
       x1="11.998966"
       y1="0.92195445"
       x2="11.998966"
       y2="17.478098" />
    <linearGradient
       inkscape:collect="always"
       xlink:href="#StandardGradient"
       id="linearGradient2418"
       gradientUnits="userSpaceOnUse"
       gradientTransform="matrix(0.9247229,0,0,1.0872097,-3.0600562,-3.0023583)"
       x1="11.998966"
       y1="0.92195445"
       x2="11.998966"
       y2="17.478098" />
    <linearGradient
       inkscape:collect="always"
       xlink:href="#StandardGradient"
       id="linearGradient2422"
       gradientUnits="userSpaceOnUse"
       gradientTransform="matrix(0.9247229,0,0,1.0872097,-5.0600562,-1.0023583)"
       x1="11.998966"
       y1="0.92195445"
       x2="11.998966"
       y2="17.478098" />
    <linearGradient
       inkscape:collect="always"
       xlink:href="#StandardGradient"
       id="linearGradient2428"
       gradientUnits="userSpaceOnUse"
       gradientTransform="matrix(0.9247229,0,0,1.0872097,-4.0600562,-3.0023583)"
       x1="11.998966"
       y1="3.6813121"
       x2="11.998966"
       y2="16.529612" />
    <inkscape:perspective
       id="perspective3648"
       inkscape:persp3d-origin="0.5 : 0.33333333 : 1"
       inkscape:vp_z="1 : 0.5 : 1"
       inkscape:vp_y="0 : 1000 : 0"
       inkscape:vp_x="0 : 0.5 : 1"
       sodipodi:type="inkscape:persp3d" />
    <linearGradient
       inkscape:collect="always"
       xlink:href="#StandardGradient"
       id="linearGradient3631"
       gradientUnits="userSpaceOnUse"
       gradientTransform="matrix(0.9247229,0,0,1.0872097,-24.060056,-3.0023583)"
       x1="11.998966"
       y1="3.6813121"
       x2="11.998966"
       y2="16.529612" />
    <clipPath
       clipPathUnits="userSpaceOnUse"
       id="clipPath3638">
      <path
         style="fill:#ff00ff;fill-opacity:1;stroke:none;display:inline"
         d="m -20,0 0,16 16,0 0,-16 -16,0 z m 6.5,1 6,0 C -6.669,1 -6,1.669 -6,2.5 l 0,8 c 0,0.831 -0.669,1.5 -1.5,1.5 l -6,0 c -0.831,0 -1.5,-0.669 -1.5,-1.5 l 0,-8 C -15,1.669 -14.331,1 -13.5,1 z m 1,2 C -12.777,3 -13,3.223 -13,3.5 l 0,6 c 0,0.277 0.223,0.5 0.5,0.5 l 4,0 C -8.223,10 -8,9.777 -8,9.5 l 0,-6 C -8,3.223 -8.223,3 -8.5,3 l -4,0 z m -4,1 0.5,0 0,2.5 0,6 c 0,0.277 0.223,0.5 0.5,0.5 l 4,0 2.5,0 0,0.5 c 0,0.831 -0.669,1.5 -1.5,1.5 l -6,0 c -0.831,0 -1.5,-0.669 -1.5,-1.5 l 0,-8 C -18,4.669 -17.331,4 -16.5,4 z"
         id="path3640" />
    </clipPath>
    <linearGradient
       inkscape:collect="always"
       xlink:href="#StandardGradient"
       id="linearGradient2852"
       gradientUnits="userSpaceOnUse"
       gradientTransform="matrix(0.9247229,0,0,1.0872097,-4.0600562,-3.0023583)"
       x1="11.998966"
       y1="3.6813121"
       x2="11.998966"
       y2="16.529612" />
    <linearGradient
       inkscape:collect="always"
       xlink:href="#StandardGradient"
       id="linearGradient2855"
       gradientUnits="userSpaceOnUse"
       gradientTransform="matrix(0.9247229,0,0,1.0872097,-8.0600562,-1.0023583)"
       x1="11.998966"
       y1="3.6813121"
       x2="11.998966"
       y2="16.529612" />
    <linearGradient
       inkscape:collect="always"
       xlink:href="#StandardGradient"
       id="linearGradient2859"
       gradientUnits="userSpaceOnUse"
       gradientTransform="matrix(0.9247229,0,0,1.0872097,-5.0600562,-5.0023583)"
       x1="11.998966"
       y1="3.6813121"
       x2="11.998966"
       y2="16.529612" />
    <linearGradient
       inkscape:collect="always"
       xlink:href="#StandardGradient"
       id="linearGradient2866"
       gradientUnits="userSpaceOnUse"
       gradientTransform="matrix(0.9247229,0,0,1.0872097,-5.0600562,-5.0023583)"
       x1="11.998966"
       y1="3.6813121"
       x2="11.998966"
       y2="16.529612" />
    <linearGradient
       inkscape:collect="always"
       xlink:href="#StandardGradient"
       id="linearGradient2872"
       gradientUnits="userSpaceOnUse"
       gradientTransform="matrix(0.9247229,0,0,1.0872097,-6.0600562,-2.0023583)"
       x1="11.998966"
       y1="3.6813121"
       x2="11.998966"
       y2="16.529612" />
    <linearGradient
       inkscape:collect="always"
       xlink:href="#StandardGradient"
       id="linearGradient2874"
       gradientUnits="userSpaceOnUse"
       gradientTransform="matrix(0.9247229,0,0,1.0872097,-4.0600562,-5.0023583)"
       x1="11.998966"
       y1="3.6813121"
       x2="11.998966"
       y2="16.529612" />
    <linearGradient
       inkscape:collect="always"
       xlink:href="#StandardGradient"
       id="linearGradient2879"
       gradientUnits="userSpaceOnUse"
       gradientTransform="matrix(0.9247229,0,0,1.0872097,-3.0600562,-6.0023583)"
       x1="11.998966"
       y1="3.6813121"
       x2="11.998966"
       y2="16.529612" />
    <linearGradient
       inkscape:collect="always"
       xlink:href="#StandardGradient"
       id="linearGradient2890"
       gradientUnits="userSpaceOnUse"
       gradientTransform="matrix(0.9247229,0,0,1.0872097,-6.0600562,-1.0023583)"
       x1="11.960401"
       y1="2.7615263"
       x2="11.960401"
       y2="14.718741" />
    <linearGradient
       inkscape:collect="always"
       xlink:href="#StandardGradient"
       id="linearGradient3667"
       gradientUnits="userSpaceOnUse"
       gradientTransform="matrix(0.9247229,0,0,1.0872097,-6.0600562,-1.0023583)"
       x1="11.960401"
       y1="2.7615263"
       x2="11.960401"
       y2="14.718741" />
    <linearGradient
       inkscape:collect="always"
       xlink:href="#StandardGradient"
       id="linearGradient3671"
       gradientUnits="userSpaceOnUse"
       gradientTransform="matrix(0.9247229,0,0,1.0872097,-6.0600562,-2.0023583)"
       x1="11.960401"
       y1="2.7615263"
       x2="11.960401"
       y2="14.718741" />
    <linearGradient
       inkscape:collect="always"
       xlink:href="#StandardGradient"
       id="linearGradient3676"
       gradientUnits="userSpaceOnUse"
       gradientTransform="matrix(0.9247229,0,0,1.0872097,-26.060056,-2.0023583)"
       x1="11.960401"
       y1="2.7615263"
       x2="11.960401"
       y2="14.718741" />
    <clipPath
       clipPathUnits="userSpaceOnUse"
       id="clipPath3683">
      <path
         style="fill:#ff00ff;fill-opacity:1;stroke:none;display:inline"
         d="m -20,0 0,16 16,0 0,-16 -16,0 z m 13,1 2,0 0,6.5 C -5,8.331 -5.669,9 -6.5,9 l -4.5,0 0,2 -4,-3 4,-3 0,2 3.5,0 C -7.223,7 -7,6.777 -7,6.5 L -7,1 z m -9.5,1 7,0 C -8.669,2 -8,2.669 -8,3.5 l 0,2.5 -2,0 0,-1.5 C -10,4.223 -10.223,4 -10.5,4 l -5,0 C -15.777,4 -16,4.223 -16,4.5 l 0,7 c 0,0.277 0.223,0.5 0.5,0.5 l 5,0 c 0.277,0 0.5,-0.223 0.5,-0.5 l 0,-1.5 2,0 0,2.5 c 0,0.831 -0.669,1.5 -1.5,1.5 l -7,0 c -0.831,0 -1.5,-0.669 -1.5,-1.5 l 0,-9 C -18,2.669 -17.331,2 -16.5,2 z"
         id="path3685" />
    </clipPath>
    <linearGradient
       inkscape:collect="always"
       xlink:href="#StandardGradient"
       id="linearGradient5532"
       gradientUnits="userSpaceOnUse"
       gradientTransform="matrix(0.9247229,0,0,1.0872097,-6.0600562,-2.0023583)"
       x1="11.960401"
       y1="2.7615263"
       x2="11.960401"
       y2="14.718741" />
    <linearGradient
       inkscape:collect="always"
       xlink:href="#StandardGradient"
       id="linearGradient5536"
       gradientUnits="userSpaceOnUse"
       gradientTransform="matrix(0.9247229,0,0,1.0872097,-6.0600562,-2.0023583)"
       x1="11.960401"
       y1="2.7615263"
       x2="11.960401"
       y2="14.718741" />
  </defs>
  <metadata
     id="metadata7">
    <rdf:RDF>
      <cc:Work
         rdf:about="">
        <dc:format>image/svg+xml</dc:format>
        <dc:type
           rdf:resource="http://purl.org/dc/dcmitype/StillImage" />
      </cc:Work>
    </rdf:RDF>
  </metadata>
  <g
     style="display:inline"
     inkscape:label="Calque 1"
     id="layer1"
     inkscape:groupmode="layer">
    <path
       id="path2884"
       style="fill:#bebebe;fill-opacity:1;stroke:none;display:inline;opacity:1"
       d="m 13,1 0,1 2,0 0,-1 -2,0 z M 3.5,2 C 2.669,2 2,2.669 2,3.5 l 0,1 C 2,3.669 2.669,3 3.5,3 l 7,0 C 11.331,3 12,3.669 12,4.5 l 0,-1 C 12,2.669 11.331,2 10.5,2 l -7,0 z M 9,5 5,8 5.65625,8.5 9,6 9,5 Z m 4,1.5 C 13,6.777 12.777,7 12.5,7 L 12,7 10,7 9,7 9,8 12.5,8 C 12.777,8 13,7.777 13,7.5 l 0,-1 z m -3,3.5 0,1 2,0 0,-1 -2,0 z m -6,1.5 0,1 C 4,12.777 4.223,13 4.5,13 l 5,0 C 9.777,13 10,12.777 10,12.5 l 0,-1 C 10,11.777 9.777,12 9.5,12 L 9,12 4.5,12 C 4.223,12 4,11.777 4,11.5 Z M 13,1 13,6.5 C 13,6.777 12.777,7 12.5,7 L 9,7 9,5 5,8 9,11 9,9 13.5,9 C 14.331,9 15,8.331 15,7.5 L 15,1 13,1 Z M 3.5,2 C 2.669,2 2,2.669 2,3.5 l 0,9 C 2,13.331 2.669,14 3.5,14 l 7,0 c 0.831,0 1.5,-0.669 1.5,-1.5 l 0,-2.5 -2,0 0,1.5 C 10,11.777 9.777,12 9.5,12 l -5,0 C 4.223,12 4,11.777 4,11.5 l 0,-7 C 4,4.223 4.223,4 4.5,4 l 5,0 C 9.777,4 10,4.223 10,4.5 L 10,6 12,6 12,3.5 C 12,2.669 11.331,2 10.5,2 l -7,0 z" />
  </g>
</svg>
